public/build/img/sistema/panelmarcas-bl.svg

<svg width="35" height="35" viewBox="0 0 35 35" fill="none" xmlns="http://www.w3.org/2000/svg">
<path d="M21.3281 13.7949C21.3281 12.6055 21.957 11.5254 22.6885 10.582C23.5498 9.46777 24.0625 8.07324 24.0625 6.5625C24.0625 2.93945 21.123 0 17.5 0C13.877 0 10.9375 2.93945 10.9375 6.5625C10.9375 8.07324 11.4502 9.46777 12.3115 10.582C13.043 11.5254 13.6719 12.6055 13.6719 13.7949C13.6719 15.8389 12.0107 17.5 9.9668 17.5H7.65625C3.4248 17.5 0 20.9248 0 25.1562C0 26.585 0.916016 27.8018 2.1875 28.2529V31.7188C2.1875 33.5303 3.65723 35 5.46875 35H29.5312C31.3428 35 32.8125 33.5303 32.8125 31.7188V28.2529C34.084 27.8018 35 26.585 35 25.1562C35 20.9248 31.5752 17.5 27.3438 17.5H25.0332C22.9893 17.5 21.3281 15.8389 21.3281 13.7949ZM28.4375 28.4375V30.625H6.5625V28.4375H28.4375Z" fill="white"/>
</svg>

<svg width="35" height="35" fill="none" xmlns="http://www.w3.org/2000/svg"><path d="M21.328 13.795c0-1.19.629-2.27 1.36-3.213A6.564 6.564 0 0017.5 0a6.564 6.564 0 00-5.187 10.582c.731.943 1.36 2.023 1.36 3.213A3.708 3.708 0 019.967 17.5h-2.31A7.652 7.652 0 000 25.156a3.29 3.29 0 002.188 3.097v3.466A3.282 3.282 0 005.467 35H29.53a3.282 3.282 0 003.282-3.281v-3.466A3.29 3.29 0 0035 25.156a7.652 7.652 0 00-7.656-7.656h-2.31a3.708 3.708 0 01-3.706-3.705zm7.11 14.643v2.187H6.563v-2.188h21.875z" fill="#fff"/></svg>
